svg/icon/eql.svg

<svg xmlns="http://www.w3.org/2000/svg" xmlns:xlink="http://www.w3.org/1999/xlink" width="32" height="32" viewBox="0 0 32 32"><defs><linearGradient id="eql-c" x1="50%" x2="50%" y1="0%" y2="100%"><stop offset="0%" stop-color="#FFF" stop-opacity=".5"/><stop offset="100%" stop-opacity=".5"/></linearGradient><circle id="eql-b" cx="15" cy="15" r="15"/><filter id="eql-a" width="111.7%" height="111.7%" x="-5.8%" y="-4.2%" filterUnits="objectBoundingBox"><feOffset dy=".5" in="SourceAlpha" result="shadowOffsetOuter1"/><feGaussianBlur in="shadowOffsetOuter1" result="shadowBlurOuter1" stdDeviation=".5"/><feComposite in="shadowBlurOuter1" in2="SourceAlpha" operator="out" result="shadowBlurOuter1"/><feColorMatrix in="shadowBlurOuter1" values="0 0 0 0 0 0 0 0 0 0 0 0 0 0 0 0 0 0 0.199473505 0"/></filter></defs><g fill="none" transform="translate(1)"><use fill="#000" filter="url(#eql-a)" xlink:href="#eql-b"/><use fill="#C9A35E" fill-rule="evenodd" xlink:href="#eql-b"/><use fill="url(#eql-c)" fill-rule="evenodd" style="mix-blend-mode:soft-light" xlink:href="#eql-b"/><circle cx="15" cy="15" r="14.5" stroke="#000" stroke-linejoin="square" stroke-opacity=".097"/><path fill="#FFF" d="M9.40022127,18.1680253 C9.34656447,18.2842817 9.22136525,18.3647669 9.08722324,18.3647669 L5.26864726,18.3647669 C5.15239085,18.3647669 5.03613444,18.3021673 4.97353484,18.1948537 C4.91093523,18.0875401 4.90199243,17.9533981 4.96459203,17.8460844 L11.9042055,5.33510602 C12.0294047,5.111536 12.3871168,5.111536 12.512316,5.33510602 L17.9227105,15.0648734 C17.9763673,15.172187 17.9763673,15.306329 17.9137677,15.4136426 C17.8601109,15.5209562 17.7438545,15.5835558 17.6186553,15.5835558 L16.0357795,15.5835558 C15.9105803,15.5835558 15.7943239,15.5120134 15.7317243,15.4046998 L12.2172035,9.01059718 L8.28237116,16.2810943 L9.78476171,16.2810943 C9.90101812,16.2810943 10.0172745,16.3436939 10.0798741,16.4420647 C10.1424737,16.5493783 10.1514165,16.6745775 10.0977597,16.7818911 L9.40022127,18.1680253 Z M25.0322372,17.8460844 C25.0948368,17.9533981 25.0948368,18.0875401 25.0232944,18.1948537 C24.9696376,18.3021673 24.8533812,18.3647669 24.728182,18.3647669 L14.309819,18.3647669 C14.1130773,18.3647669 13.9610497,18.2037965 13.9610497,18.0159977 L13.9610497,16.6298635 C13.9610497,16.4331219 14.1220201,16.2810943 14.309819,16.2810943 L21.7234009,16.2810943 L17.7975113,9.03742558 L17.0552588,10.5219305 C16.9300596,10.7544434 16.5455192,10.7544434 16.4292628,10.5219305 L15.7317243,9.13579639 C15.6870103,9.03742558 15.6870103,8.92116917 15.7317243,8.82279836 L17.4666277,5.34404882 C17.5292273,5.23673521 17.6454837,5.15625 17.7706829,5.15625 C17.8869393,5.15625 18.0210813,5.21884961 18.0836809,5.33510602 L25.0322372,17.8460844 Z M20.5161228,19.2322186 L22.2420833,22.3621989 C22.3046829,22.4695125 22.3046829,22.6036545 22.2420833,22.7109681 C22.1884265,22.8182817 22.0721701,22.8808813 21.9469709,22.8808813 L8.04985834,22.8808813 C7.92465913,22.8808813 7.80840272,22.8093389 7.74580311,22.7020253 C7.6832035,22.5947117 7.6921463,22.4605697 7.75474591,22.3532561 L10.535957,17.8371416 L13.3082253,12.9812008 C13.3708249,12.8649444 13.4960241,12.793402 13.6212233,12.8023448 C13.7553653,12.8023448 13.8716217,12.8738872 13.9252785,12.9901436 L14.622817,14.3762777 C14.6764738,14.4835913 14.6764738,14.6087905 14.6138742,14.7071613 L11.0904106,20.7882659 L18.9064186,20.7882659 L18.1820517,19.5809878 C18.1105093,19.4736742 18.1105093,19.3395322 18.1731089,19.2322186 C18.2357085,19.124905 18.351965,19.0533626 18.4771642,19.0533626 L20.2120675,19.0533626 C20.3372667,19.0533626 20.4535232,19.124905 20.5161228,19.2322186 Z"/></g></svg>

<svg xmlns="http://www.w3.org/2000/svg" xmlns:xlink="http://www.w3.org/1999/xlink" width="32" height="32" viewBox="0 0 32 32"><defs><linearGradient id="c" x1="50%" x2="50%" y1="0%" y2="100%"><stop offset="0%" stop-color="#FFF" stop-opacity=".5"/><stop offset="100%" stop-opacity=".5"/></linearGradient><circle id="b" cx="15" cy="15" r="15"/><filter id="a" width="111.7%" height="111.7%" x="-5.8%" y="-4.2%" filterUnits="objectBoundingBox"><feOffset dy=".5" in="SourceAlpha" result="shadowOffsetOuter1"/><feGaussianBlur in="shadowOffsetOuter1" result="shadowBlurOuter1" stdDeviation=".5"/><feComposite in="shadowBlurOuter1" in2="SourceAlpha" operator="out" result="shadowBlurOuter1"/><feColorMatrix in="shadowBlurOuter1" values="0 0 0 0 0 0 0 0 0 0 0 0 0 0 0 0 0 0 0.199473505 0"/></filter></defs><g fill="none" transform="translate(1)"><use fill="#000" filter="url(#a)" xlink:href="#b"/><use fill="#C9A35E" fill-rule="evenodd" xlink:href="#b"/><use fill="url(#c)" fill-rule="evenodd" style="mix-blend-mode:soft-light" xlink:href="#b"/><circle cx="15" cy="15" r="14.5" stroke="#000" stroke-linejoin="square" stroke-opacity=".097"/><path fill="#FFF" d="M9.4 18.168a.349.349 0 0 1-.313.197H5.27a.345.345 0 0 1-.295-.17.348.348 0 0 1-.01-.349l6.94-12.51c.125-.224.483-.224.608 0l5.41 9.729a.37.37 0 0 1-.008.349.324.324 0 0 1-.295.17h-1.583a.357.357 0 0 1-.304-.18l-3.515-6.393-3.935 7.27h1.503c.116 0 .232.063.295.161a.354.354 0 0 1 .018.34L9.4 18.168zm15.632-.322a.328.328 0 0 1-.009.349.324.324 0 0 1-.295.17H14.31a.35.35 0 0 1-.349-.349V16.63a.35.35 0 0 1 .349-.349h7.413l-3.925-7.244-.743 1.485c-.125.232-.51.232-.626 0l-.697-1.386a.382.382 0 0 1 0-.313l1.735-3.479a.366.366 0 0 1 .304-.188c.116 0 .25.063.313.18l6.948 12.51zm-4.516 1.386l1.726 3.13a.347.347 0 0 1 0 .349.324.324 0 0 1-.295.17H8.05a.357.357 0 0 1-.304-.179.348.348 0 0 1 .009-.349l2.781-4.516 2.772-4.856a.336.336 0 0 1 .313-.179c.134 0 .25.072.304.188l.698 1.386a.335.335 0 0 1-.01.331l-3.523 6.081h7.816l-.724-1.207a.328.328 0 0 1-.009-.349.357.357 0 0 1 .304-.179h1.735c.125 0 .242.072.304.18z"/></g></svg>
